X: 3
T:The Low Highland
M:4/4
L:1/8
F:http://blackrosetheband.googlepages.com/ABCTUNES.ABC May 2009
S:Altan: The Blue Idol - Track 09, Tune 1
R:highland
K:Ador
"Am"A,2 A,2 EA,B,A,|"G"G,B,DG D<G, B,G,|"Am"A,2 A,2 EA,B,A,|"G"G,A, (3B,A,G, A,2 G,B,|
"Am"A,2 A,2 EA,B,A,|"G"G,B,DG D<G, B,G,|"Am"A,2 A,2 EA,B,A,|"G"G,A, (3B,A,G, A,2 G,B,|
"Am"A, bag edef|"G"g2 g2 dgBG|"Am"Abag edef|"G"(3gfe dB (3ABA ^GB|
"Am"Abag edef|"G"g2 g2 dgfg|"Am"(3agf ge fdAF|"G"(3GFE DB, (3A,B,A, G,B, |

